src/svg/taxi-solid.svg

<svg xmlns="http://www.w3.org/2000/svg" viewBox="0 0 512 512"><!--! Font Awesome Pro 6.2.1 by @fontawesome - https://fontawesome.com License - https://fontawesome.com/license (Commercial License) Copyright 2022 Fonticons, Inc. --><path d="M192 0c-17.7 0-32 14.3-32 32V64c0 .1 0 .1 0 .2c-38.6 2.2-72.3 27.3-85.2 64.1L39.6 228.8C16.4 238.4 0 261.3 0 288V432v48c0 17.7 14.3 32 32 32H64c17.7 0 32-14.3 32-32V432H416v48c0 17.7 14.3 32 32 32h32c17.7 0 32-14.3 32-32V432 288c0-26.7-16.4-49.6-39.6-59.2L437.2 128.3c-12.9-36.8-46.6-62-85.2-64.1c0-.1 0-.1 0-.2V32c0-17.7-14.3-32-32-32H192zM165.4 128H346.6c13.6 0 25.7 8.6 30.2 21.4L402.9 224H109.1l26.1-74.6c4.5-12.8 16.6-21.4 30.2-21.4zM96 352c-17.7 0-32-14.3-32-32s14.3-32 32-32s32 14.3 32 32s-14.3 32-32 32zm352-32c0 17.7-14.3 32-32 32s-32-14.3-32-32s14.3-32 32-32s32 14.3 32 32z"/></svg>

<?xml version="1.0" encoding="UTF-8" standalone="no" ?>
<!DOCTYPE svg PUBLIC "-//W3C//DTD SVG 1.1//EN" "http://www.w3.org/Graphics/SVG/1.1/DTD/svg11.dtd">
<svg xmlns="http://www.w3.org/2000/svg" xmlns:xlink="http://www.w3.org/1999/xlink" version="1.1" width="1080" height="1080" viewBox="0 0 1080 1080" xml:space="preserve">
<desc>Created with Fabric.js 5.2.4</desc>
<defs>
</defs>
<rect x="0" y="0" width="100%" height="100%" fill="transparent"></rect>
<g transform="matrix(1 0 0 1 540 540)" id="fc5d5d61-4160-4d53-bb65-7ff2b5b2a1d5"  >
<rect style="stroke: none; stroke-width: 1; stroke-dasharray: none; stroke-linecap: butt; stroke-dashoffset: 0; stroke-linejoin: miter; stroke-miterlimit: 4; fill: rgb(255,255,255); fill-rule: nonzero; opacity: 1; visibility: hidden;" vector-effect="non-scaling-stroke"  x="-540" y="-540" rx="0" ry="0" width="1080" height="1080" />
</g>
<g transform="matrix(1 0 0 1 540 540)" id="8e508627-b818-490f-9a6b-7131ba84b7b1"  >
</g>
<g transform="matrix(1.39 0 0 1.39 540 540)" id="8549b376-1b90-4221-9892-2cc38283e1ab"  >
<path style="stroke: rgb(0,0,0); stroke-opacity: 0.84; stroke-width: 1; stroke-dasharray: none; stroke-linecap: butt; stroke-dashoffset: 0; stroke-linejoin: miter; stroke-miterlimit: 4; fill: rgb(255,205,49); fill-rule: nonzero; opacity: 1;" vector-effect="non-scaling-stroke"  transform=" translate(-256, -256)" d="M 192 0 C 174.3 0 160 14.3 160 32 L 160 64 C 160 64.1 160 64.1 160 64.2 C 121.4 66.4 87.7 91.5 74.8 128.3 L 39.6 228.8 C 16.4 238.4 0 261.3 0 288 L 0 432 L 0 480 C 0 497.7 14.3 512 32 512 L 64 512 C 81.7 512 96 497.7 96 480 L 96 432 L 416 432 L 416 480 C 416 497.7 430.3 512 448 512 L 480 512 C 497.7 512 512 497.7 512 480 L 512 432 L 512 288 C 512 261.3 495.6 238.4 472.4 228.8 L 437.2 128.3 C 424.3 91.50000000000001 390.59999999999997 66.30000000000001 352 64.20000000000002 C 352 64.10000000000002 352 64.10000000000002 352 64.00000000000001 L 352 32 C 352 14.3 337.7 0 320 0 L 192 0 z M 165.4 128 L 346.6 128 C 360.20000000000005 128 372.3 136.6 376.8 149.4 L 402.9 224 L 109.1 224 L 135.2 149.4 C 139.7 136.6 151.79999999999998 128 165.39999999999998 128 z M 96 352 C 78.3 352 64 337.7 64 320 C 64 302.3 78.3 288 96 288 C 113.7 288 128 302.3 128 320 C 128 337.7 113.7 352 96 352 z M 448 320 C 448 337.7 433.7 352 416 352 C 398.3 352 384 337.7 384 320 C 384 302.3 398.3 288 416 288 C 433.7 288 448 302.3 448 320 z" stroke-linecap="round" />
</g>
</svg>
